!!!COM: Palestrina, Giovanni Perluigi da
!!!OPR: Dum complerentur
!!!OTL: Benedictus
**kern	**kern	**kern	**kern	**kern	**kern
*Ibass	*Itenor	*Itenor	*Icalto	*Icalto	*Icant
!Bassus	!Tenor 2	!Tenor 1	!Altus 2	!Altus 1	!Cantus
*clefF4	*clefGv2	*clefGv2	*clefG2	*clefG2	*clefG2
*k[b-]	*k[b-]	*k[b-]	*k[b-]	*k[b-]	*k[b-]
*F:ion	*F:ion	*F:ion	*F:ion	*F:ion	*F:ion
*M4/2	*M4/2	*M4/2	*M4/2	*M4/2	*M4/2
=1	=1	=1	=1	=1	=1
0F	0r	0r	0r	0f	0r
=2	=2	=2	=2	=2	=2
1G	0r	0r	0r	1e	0r
1B-	.	.	.	1d	.
=3	=3	=3	=3	=3	=3
4A	0r	0r	0r	2c	0r
4G	.	.	.	.	.
4F	.	.	.	2.f	.
4E	.	.	.	.	.
2D	.	.	.	.	.
.	.	.	.	4e	.
4BB-	.	.	.	4d	.
4C	.	.	.	4c	.
=4	=4	=4	=4	=4	=4
4D	0r	0r	0r	2B-	0r
4E	.	.	.	.	.
4F	.	.	.	4A	.
4G	.	.	.	4B-	.
4A	.	.	.	4c	.
4B-	.	.	.	4d	.
[2c	.	.	.	4e	.
.	.	.	.	4d	.
=5	=5	=5	=5	=5	=5
2c]	0r	0r	0cc	4e	0r
.	.	.	.	4f	.
2B-	.	.	.	2.g	.
2.A	.	.	.	.	.
.	.	.	.	4f	.
.	.	.	.	[2f	.
8G	.	.	.	.	.
8F	.	.	.	.	.
=6	=6	=6	=6	=6	=6
1G	0r	0r	1b-	2f]	0r
.	.	.	.	2e	.
1F	.	.	1a	2f	.
.	.	.	.	[2f	.
=7	=7	=7	=7	=7	=7
2.c	0r	0r	2g	2f]	0r
.	.	.	2.cc	2e	.
4B-	.	.	.	.	.
4A	.	.	.	1c	.
4G	.	.	4b-	.	.
4F	.	.	4a	.	.
4E	.	.	4g	.	.
=8	=8	=8	=8	=8	=8
2D	0r	0r	2f	2d	0r
2G	.	.	4d	4B-	.
.	.	.	4e	4c	.
1F	.	.	4f	4d	.
.	.	.	4g	4e	.
.	.	.	4a	4f	.
.	.	.	4f	4d	.
=9	=9	=9	=9	=9	=9
0C	0c	0r	2g	2e	0cc
.	.	.	2a	1f	.
.	.	.	1g	.	.
.	.	.	.	2e	.
=10	=10	=10	=10	=10	=10
0r	1d	0r	2f	1f	1b-
.	.	.	4B-	.	.
.	.	.	4c	.	.
.	1f	.	4d	1r	1a
.	.	.	4e	.	.
.	.	.	2f	.	.
=11	=11	=11	=11	=11	=11
0r	4e	0r	2c	0r	2g
.	4d	.	.	.	.
.	4c	.	2e	.	2.cc
.	4B-	.	.	.	.
.	2A	.	4f	.	.
.	.	.	4g	.	4b-
.	4F	.	4a	.	4a
.	4G	.	4b-	.	4g
=12	=12	=12	=12	=12	=12
0r	4A	0r	1cc	0r	2f
.	4B-	.	.	.	.
.	4c	.	.	.	4e
.	4d	.	.	.	4f
.	4e	.	1r	.	4g
.	4f	.	.	.	4a
.	[2g	.	.	.	4b-
.	.	.	.	.	4g
=13	=13	=13	=13	=13	=13
0r	2g]	0c	0r	0cc	1a
.	1f	.	.	.	.
.	.	.	.	.	1g
.	2e	.	.	.	.
=14	=14	=14	=14	=14	=14
0r	2f	1d	0r	1b-	2f
.	2B-	.	.	.	4f
.	.	.	.	.	4g
.	4F	1f	.	1a	4a
.	4G	.	.	.	4b-
.	4A	.	.	.	[2cc
.	4B-	.	.	.	.
=15	=15	=15	=15	=15	=15
0r	1c	4e	0r	2g	2cc]
.	.	4d	.	.	.
.	.	4c	.	2.cc	2g
.	.	4B-	.	.	.
.	1F	2A	.	.	1a
.	.	.	.	4b-	.
.	.	4F	.	4a	.
.	.	4G	.	4g	.
=16	=16	=16	=16	=16	=16
0r	2F	4A	0r	2f	1cc
.	.	4B-	.	.	.
.	2A	4c	.	4e	.
.	.	4d	.	4f	.
.	1G	4e	.	4g	2r
.	.	4f	.	4a	.
.	.	[2g	.	4b-	[2dd
.	.	.	.	4g	.
=17	=17	=17	=17	=17	=17
0r	1d	2g]	0r	2a	2dd]
.	.	1f	.	4g	2b-
.	.	.	.	4f	.
.	1c	.	.	2g	2.cc
.	.	2e	.	[2cc	.
.	.	.	.	.	4b-
=18	=18	=18	=18	=18	=18
0r	1F	1f	0r	4cc]	4a
.	.	.	.	4b-	4f
.	.	.	.	2a	1ff
.	[1c	2r	.	1g	.
.	.	2g	.	.	4ee
.	.	.	.	.	4dd
=19	=19	=19	=19	=19	=19
2r	1c]	4g	1r	0r	0ee
.	.	4f	.	.	.
2c	.	4e	.	.	.
.	.	4d	.	.	.
4c	1r	2e	2r	.	.
4B-	.	.	.	.	.
4A	.	2c	2cc	.	.
4G	.	.	.	.	.
=20	=20	=20	=20	=20	=20
2A	0r	2c	4cc	0r	0r
.	.	.	4b-	.	.
2F	.	2.f	4a	.	.
.	.	.	4g	.	.
2F	.	.	2a	.	.
.	.	4e	.	.	.
[2B-	.	4d	2f	.	.
.	.	4c	.	.	.
=21	=21	=21	=21	=21	=21
4B-]	0r	2d	2f	1r	0r
4A	.	.	.	.	.
4G	.	2.e	2.g	.	.
4F	.	.	.	.	.
2G	.	.	.	2r	.
.	.	4d	4f	.	.
2A	.	4c	4e	2cc	.
.	.	4B-	4d	.	.
=22	=22	=22	=22	=22	=22
4A	0r	2A	2e	4cc	0r
4G	.	.	.	4b-	.
4F	.	2A	2.f	4a	.
4E	.	.	.	4g	.
2D	.	1d	.	2a	.
.	.	.	4e	.	.
2B-	.	.	4d	2f	.
.	.	.	4c	.	.
=23	=23	=23	=23	=23	=23
4B-	0r	2r	1.d	2f	0r
4A	.	.	.	.	.
4G	.	2g	.	2.b-	.
4F	.	.	.	.	.
2G	.	4g	.	.	.
.	.	4f	.	4a	.
2c	.	4e	2e	4g	.
.	.	4d	.	4f	.
=24	=24	=24	=24	=24	=24
4c	0r	2e	2c	2g	0r
4B-	.	.	.	.	.
4A	.	2e	2cc	2a	.
4G	.	.	.	.	.
1A	.	1c	4cc	2a	.
.	.	.	4b-	.	.
.	.	.	4a	[2cc	.
.	.	.	4g	.	.
=25	=25	=25	=25	=25	=25
1F	0r	2.f	2a	4cc]	0r
.	.	.	.	4b-	.
.	.	.	2f	4a	.
.	.	4e	.	4g	.
1F	.	4d	4f	2a	.
.	.	4c	4e	.	.
.	.	[2d	4d	2a	.
.	.	.	4c	.	.
=26	=26	=26	=26	=26	=26
0G	1r	2d]	4B-	1.g	0r
.	.	.	8c	.	.
.	.	.	8d	.	.
.	.	1c	2e-	.	.
.	2r	.	2d	.	.
.	2g	2B	2d	2d	.
=27	=27	=27	=27	=27	=27
0C	4g	0c	1c	2.e	2r
.	4f	.	.	.	.
.	4e	.	.	.	2gg
.	4d	.	.	4f	.
.	2e	.	2r	2g	4gg
.	.	.	.	.	4ff
.	2c	.	2cc	[2g	4ee
.	.	.	.	.	4dd
=28	=28	=28	=28	=28	=28
0r	2c	0r	4cc	2g]	2ee
.	.	.	4b-	.	.
.	2.f	.	4a	2a	2cc
.	.	.	4g	.	.
.	.	.	2a	1f	2cc
.	4e	.	.	.	.
.	4d	.	2a	.	[2ff
.	4c	.	.	.	.
=29	=29	=29	=29	=29	=29
0r	2d	0r	2f	0r	4ff]
.	.	.	.	.	4ee
.	2B-	.	2.b-	.	4dd
.	.	.	.	.	4cc
.	2B-	.	.	.	2dd
.	.	.	4a	.	.
.	[2e-	.	4g	.	2b-
.	.	.	4f	.	.
=30	=30	=30	=30	=30	=30
0r	4e-]	1r	2g	0r	2b-
.	4d	.	.	.	.
.	4c	.	2.a	.	2.cc
.	4B-	.	.	.	.
.	2c	2r	.	.	.
.	.	.	4g	.	4b-
.	[2d	2f	4f	.	4a
.	.	.	4e	.	4g
=31	=31	=31	=31	=31	=31
0r	4d]	4f	2d	0r	2a
.	4c	4e	.	.	.
.	4B-	4d	2.b-	.	1dd
.	4A	4c	.	.	.
.	4G	2d	.	.	.
.	4F	.	4a	.	.
.	[2f	2d	4g	.	2b-
.	.	.	4f	.	.
=32	=32	=32	=32	=32	=32
1r	2f]	1c	2g	2r	2.cc
.	2e	.	2g	2cc	.
.	.	.	.	.	4b-
2r	1f	4F	[1f	4cc	1a
.	.	4G	.	4b-	.
2F	.	4A	.	4a	.
.	.	4B-	.	4g	.
=33	=33	=33	=33	=33	=33
4F	2r	2c	0f]	2a	0r
4E	.	.	.	.	.
4D	2f	2.d	.	2a	.
4C	.	.	.	.	.
2D	4f	.	.	2f	.
.	4e	4e	.	.	.
2BB-	4d	2f	.	[2b-	.
.	4c	.	.	.	.
=34	=34	=34	=34	=34	=34
2BB-	2d	2F	0r	4b-]	1r
.	.	.	.	4a	.
2.E-	2B-	2G	.	4g	.
.	.	.	.	4f	.
.	2B-	1r	.	[1g	2r
4D	.	.	.	.	.
4C	[2e-	.	.	.	2cc
4BB-	.	.	.	.	.
=35	=35	=35	=35	=35	=35
2C	4e-]	2c	1r	2g]	4cc
.	4d	.	.	.	4b-
2.F	1c	4c	.	2f	4a
.	.	4B-	.	.	4g
.	.	4A	2r	1f	2a
4E	.	4G	.	.	.
4D	2d	2A	2f	.	2a
4C	.	.	.	.	.
=36	=36	=36	=36	=36	=36
2D	0d	2A	4f	2r	2f
.	.	.	4e	.	.
2D	.	2F	4d	2a	2.ff
.	.	.	4c	.	.
[1BB-	.	2.f	2d	2b-	.
.	.	.	.	.	4ee
.	.	.	2B-	2f	4dd
.	.	4e	.	.	4cc
=37	=37	=37	=37	=37	=37
0BB-]	2r	4d	1B-	2.f	2dd
.	.	4c	.	.	.
.	2f	2d	.	.	2.ff
.	.	.	.	4e	.
.	2f	2d	2.b-	4d	.
.	.	.	.	4c	4ee
.	2F	2B-	.	2d	[2dd
.	.	.	4a	.	.
=38	=38	=38	=38	=38	=38
1C	1c	1e-	4g	1.g	2dd]
.	.	.	4f	.	.
.	.	.	1g	.	1cc
2.G	2d	2.d	.	.	.
.	2G	.	2d	2g	2b
4G	.	4d	.	.	.
=39	=39	=39	=39	=39	=39
0C	0G	0c	0e	0g	0cc
==	==	==	==	==	==
*-	*-	*-	*-	*-	*-
!!!CDT: 1525/^1526/-1594/2/2
!!!OCY: Italia
!!!AGN: Mass (Parody)
!!!AST: renaissance, vocal
!!!ASW: Motet 1569 (Palestrina)
!!!PWK: Masses, Book 8
!!!RNB: Cadence finals: C
!!!YOR: Le Opere Complete, v. 24, p. 117
!!!YOO: Rome, Italy: Fratelli Scalera
!!!END: 1992//
!!!EED: John Miller
!!!YEC: Copyright 2000, John Miller
!!!YEN: United States of America
!!!YEM: Rights to all derivative electronic formats reserved.
!!!YEM: Refer to licensing agreement for further details.
!!!YEM: This file must be accompanied by the licensing agreement.
!!!YEM: A copy of the licensing agreement may be found at http://www.music-cog.ohio-state.edu/HumdrumDatabases/Palestrina/license.txt
!!!EMD: converted to Humdrum by Bret Aarden
